svg/u1f366.svg

<svg viewBox="0 0 128 128" xmlns="http://www.w3.org/2000/svg">
  <path d="M82.56,77.72l-45.28-0.4c0,0-0.42,2.15,0.45,4.32c0.8,2,4.03,4.88,4.03,4.88l3.79,8.35l3.12,19.47 l0.6,5.63c0,0,2.22,4.15,14.77,4.15s14.74-4.3,14.74-4.3l0.43-3.62l3.49-20.11l6.98-12.05c0,0,1.53-1.07,2.42-3.35 c0.62-1.59,0.29-3.83,0.29-3.57S82.56,77.72,82.56,77.72z" fill="#E27F13"/>
  <path d="M64.84,98.82c10.17,0.06,15.08-0.58,18.07-2.68c2.25-1.58,3.35-3.37,4.88-5.92 c2.12-3.53,2.03-6.24,2.03-6.24s-8.48,4.37-25.25,4.15C48.11,87.92,39.28,84,39.28,84s0.8,3.88,2.13,6.4 c1.54,2.9,4.35,4.74,4.35,4.74S51.09,98.74,64.84,98.82z" fill="#F5B03E"/>
  <path d="M47.51,99.67c1.01,0.37,2.06,0.72,2.06,0.72l1.5,17.87c0,0-2.69-0.91-3-1.87 c-0.18-0.55-1.02-6.48-1.62-11.3c-0.32-2.58-0.61-4.32-0.69-5.24C45.67,98.85,46.56,99.32,47.51,99.67z" fill="#F5B03E"/>
  <path d="M58.32,102.19c-3.4-0.43-6.11-1-6.11-1c0.05,0.37,1.28,17.64,1.28,17.64s1.32,0.84,5.03,1.3 L58.32,102.19z" fill="#F5B03E"/>
  <path d="M67.21,102.48c-2.53,0.14-5.35-0.04-6.29-0.07l-0.08,17.93c0.98,0.06,2.06,0.09,3.27,0.08 c1.04-0.01,2.02-0.07,2.97-0.15L67.21,102.48z" fill="#F5B03E"/>
  <g>
    <path d="M78.85,101.32c-0.48,4.08-1.49,12.92-1.89,16.57c1.89-0.69,2.64-1.05,2.89-2 c0.25-0.95,2.22-14.53,2.27-15.27c0.04-0.47-0.18-0.55-1.4-0.04C79.95,100.92,79.58,101.06,78.85,101.32z" fill="#F5B03E"/>
    <path d="M76.46,101.69c-1.74,0.29-4.03,0.58-6.73,0.8l-0.33,17.49c2.18-0.36,4.04-0.89,5.56-1.45 C75.37,114.31,76.19,105.02,76.46,101.69z" fill="#F5B03E"/>
  </g>
  <path d="M57.63,15.66c1.14-0.1-0.14-4.89,2.73-4.95c3.93-0.09,2.81,5.95,1.02,7.77 c-4.74,4.83-12.15,3.9-13.91,11.78c-1.15,5.13,4.05,6.97,4.05,6.97s-8.58-0.49-12.58,7.88c-3.27,6.85,0.68,11.61,0.68,11.61 s-4.53,0.86-6.4,7.34c-2.39,8.28,4.52,13.74,4.52,13.74l29.71,2.39l29.11-13.4l-0.17-6.57c0,0-1.34-1.93-2.66-3.09 c-1.47-1.29-3.06-2.35-3.06-2.35l1.87-8.73c0,0,0.3-5.33-6.99-10.84c-3.27-2.48-6.82-3.17-6.82-3.17s-2.08-12.45-2.5-13.3 c-0.43-0.85-5.12-8.37-5.98-8.88c-0.85-0.51-6.73-5.67-6.73-5.67s-4.2-1.42-7.02,2.17S54.64,15.92,57.63,15.66z" fill="#FFEBCA"/>
  <path d="M70.01,28.13c-5.98,8.02-18.51,9.09-18.51,9.09s4,2.78,15.94,1.84c12.48-0.98,15.37-6.57,15.2-12.72 S78.21,13.68,71.92,8.52C66.03,3.7,61.58,3.95,61.58,3.95s4.72,1.43,8.3,6.3C73.66,15.38,73.41,23.56,70.01,28.13z" fill="#EAC084"/>
  <path d="M39.62,56.71c0,0,8.28,4.64,27.83,4.46c18.35-0.17,23.48-6.15,23.48-6.15s2.09-2.85,1.92-7.63 c-0.17-4.98-2.96-7.86-2.96-7.86s-5.19,6.7-12.19,10.63s-20.5,5.73-26.72,6.15C44.66,56.72,39.62,56.71,39.62,56.71z" fill="#EAC084"/>
  <path d="M96.39,60.22c0,0,2.74,3.07,1.79,8.02c-1.11,5.81-5.72,9.73-5.72,9.73s-4.87,4.88-28.93,5.06 c-21.52,0.16-26.16-5.55-26.16-5.55s22.42,0.95,37.22-4.05c12.46-4.2,15.06-5.9,18.82-9.65C94.7,62.5,96.39,60.22,96.39,60.22z" fill="#EAC084"/>
  <path d="M38.34,73.34c1.83-0.21,0.8-5.36,3.04-8.27c2.25-2.91,3.29-3.74,2.8-4.88 c-0.48-1.14-5.19-1.28-7.23,3.77C35.26,68.17,36.9,73.5,38.34,73.34z" fill="#FFFFFF"/>
  <path d="M54.24,41.02c0.1,1.83-3.22,1.42-6.92,5.98c-3,3.7-2.59,7.57-4.43,7.75 c-1.83,0.17-2.57-6.31-0.1-9.99C46.28,39.54,54.1,38.64,54.24,41.02z" fill="#FFFFFF"/>
  <path d="M61.93,22.52c0.7,0.44-0.21,2.42-3.35,4.81c-3.74,2.84-5.12,5.08-6.5,4.7 c-1.01-0.28-1.97-2.42,0.07-4.77c1.56-1.8,4.62-2.63,6.09-3.32C60.37,22.93,61.27,22.1,61.93,22.52z" fill="#FFFFFF"/>
</svg>

<svg viewBox="0 0 128 128" xmlns="http://www.w3.org/2000/svg">
  <defs/>
  <path d="M82.56,77.72 L37.28,77.32 C37.28,77.32 36.86,79.47 37.73,81.64 C38.53,83.64 41.76,86.52 41.76,86.52 L45.55,94.87 L48.67,114.34 L49.27,119.97 C49.27,119.97 51.49,124.12 64.04,124.12 C76.59,124.12 78.78,119.82 78.78,119.82 L79.21,116.2 L82.7,96.09 L89.68,84.04 C89.68,84.04 91.21,82.97 92.1,80.69 C92.72,79.1 92.39,76.86 92.39,77.12 C92.39,77.38 82.56,77.72 82.56,77.72 Z" fill="#E27F13"/>
  <path d="M64.84,98.82 C75.01,98.88 79.92,98.24 82.91,96.14 C85.16,94.56 86.26,92.77 87.79,90.22 C89.91,86.69 89.82,83.98 89.82,83.98 C89.82,83.98 81.34,88.35 64.57,88.13 C48.11,87.92 39.28,84 39.28,84 C39.28,84 40.08,87.88 41.41,90.4 C42.95,93.3 45.76,95.14 45.76,95.14 C45.76,95.14 51.09,98.74 64.84,98.82 Z" fill="#F5B03E"/>
  <path d="M47.51,99.67 C48.52,100.04 49.57,100.39 49.57,100.39 L51.07,118.26 C51.07,118.26 48.38,117.35 48.07,116.39 C47.89,115.84 47.05,109.91 46.45,105.09 C46.13,102.51 45.84,100.77 45.76,99.85 C45.67,98.85 46.56,99.32 47.51,99.67 Z" fill="#F5B03E"/>
  <path d="M58.32,102.19 C54.92,101.76 52.21,101.19 52.21,101.19 C52.26,101.56 53.49,118.83 53.49,118.83 C53.49,118.83 54.81,119.67 58.52,120.13 L58.32,102.19 Z" fill="#F5B03E"/>
  <path d="M67.21,102.48 C64.68,102.62 61.86,102.44 60.92,102.41 L60.84,120.34 C61.82,120.4 62.9,120.43 64.11,120.42 C65.15,120.41 66.13,120.35 67.08,120.27 L67.21,102.48 Z" fill="#F5B03E"/>
  <path d="M78.85,101.32 C78.37,105.4 77.36,114.24 76.96,117.89 C78.85,117.2 79.6,116.84 79.85,115.89 C80.1,114.94 82.07,101.36 82.12,100.62 C82.16,100.15 81.94,100.07 80.72,100.58 C79.95,100.92 79.58,101.06 78.85,101.32 Z" fill="#F5B03E"/>
  <path d="M76.46,101.69 C74.72,101.98 72.43,102.27 69.73,102.49 L69.4,119.98 C71.58,119.62 73.44,119.09 74.96,118.53 C75.37,114.31 76.19,105.02 76.46,101.69 Z" fill="#F5B03E"/>
  <path d="M57.63,15.66 C58.77,15.56 57.49,10.77 60.36,10.71 C64.29,10.62 63.17,16.66 61.38,18.48 C56.64,23.31 49.23,22.38 47.47,30.26 C46.32,35.39 51.52,37.23 51.52,37.23 C51.52,37.23 42.94,36.74 38.94,45.11 C35.67,51.96 39.62,56.72 39.62,56.72 C39.62,56.72 35.09,57.58 33.22,64.06 C30.83,72.34 37.74,77.8 37.74,77.8 L67.45,80.19 L96.56,66.79 L96.39,60.22 C96.39,60.22 95.05,58.29 93.73,57.13 C92.26,55.84 90.67,54.78 90.67,54.78 L92.54,46.05 C92.54,46.05 92.84,40.72 85.55,35.21 C82.28,32.73 78.73,32.04 78.73,32.04 C78.73,32.04 76.65,19.59 76.23,18.74 C75.8,17.89 71.11,10.37 70.25,9.86 C69.4,9.35 63.52,4.19 63.52,4.19 C63.52,4.19 59.32,2.77 56.5,6.36 C53.68,9.95 54.64,15.92 57.63,15.66 Z" fill="#FFEBCA"/>
  <path d="M70.01,28.13 C64.03,36.15 51.5,37.22 51.5,37.22 C51.5,37.22 55.5,40 67.44,39.06 C79.92,38.08 82.81,32.49 82.64,26.34 C82.47,20.19 78.21,13.68 71.92,8.52 C66.03,3.7 61.58,3.95 61.58,3.95 C61.58,3.95 66.3,5.38 69.88,10.25 C73.66,15.38 73.41,23.56 70.01,28.13 Z" fill="#EAC084"/>
  <path d="M39.62,56.71 C39.62,56.71 47.9,61.35 67.45,61.17 C85.8,61 90.93,55.02 90.93,55.02 C90.93,55.02 93.02,52.17 92.85,47.39 C92.68,42.41 89.89,39.53 89.89,39.53 C89.89,39.53 84.7,46.23 77.7,50.16 C70.7,54.09 57.2,55.89 50.98,56.31 C44.66,56.72 39.62,56.71 39.62,56.71 Z" fill="#EAC084"/>
  <path d="M96.39,60.22 C96.39,60.22 99.13,63.29 98.18,68.24 C97.07,74.05 92.46,77.97 92.46,77.97 C92.46,77.97 87.59,82.85 63.53,83.03 C42.01,83.19 37.37,77.48 37.37,77.48 C37.37,77.48 59.79,78.43 74.59,73.43 C87.05,69.23 89.65,67.53 93.41,63.78 C94.7,62.5 96.39,60.22 96.39,60.22 Z" fill="#EAC084"/>
  <path d="M38.34,73.34 C40.17,73.13 39.14,67.98 41.38,65.07 C43.63,62.16 44.67,61.33 44.18,60.19 C43.7,59.05 38.99,58.91 36.95,63.96 C35.26,68.17 36.9,73.5 38.34,73.34 Z" fill="#FFFFFF"/>
  <path d="M54.24,41.02 C54.34,42.85 51.02,42.44 47.32,47 C44.32,50.7 44.73,54.57 42.89,54.75 C41.06,54.92 40.32,48.44 42.79,44.76 C46.28,39.54 54.1,38.64 54.24,41.02 Z" fill="#FFFFFF"/>
  <path d="M61.93,22.52 C62.63,22.96 61.72,24.94 58.58,27.33 C54.84,30.17 53.46,32.41 52.08,32.03 C51.07,31.75 50.11,29.61 52.15,27.26 C53.71,25.46 56.77,24.63 58.24,23.94 C60.37,22.93 61.27,22.1 61.93,22.52 Z" fill="#FFFFFF"/>
</svg>
